nameplates/kelvin.svg

<svg xmlns="http://www.w3.org/2000/svg" width="1496" height="615" fill="none"><g fill="#fff" clip-path="url(#a)"><path d="M266.724 0H163.756l-68.92 219.387V0H0v590.869l94.973-49.09V294.676l26.742 84.252 28.395 89.63 23.157 73.221h102.141L174.095 257.445zM27.568 27.579h39.837v363.346c-13.233 3.034-26.466 6.067-39.837 9.239zM183.743 366.38a1736 1736 0 0 0-34.874 7.033l-27.568-87.011-9.235-29.095 9.235-29.509 62.856-200.22h43.42l-79.397 220.49-3.308 9.239 3.308 9.239 35.563 99.696zm142.667-25.234v200.633h174.922v-83.976h-79.949V300.192h79.949v-75.29h-79.949V79.978h79.949V0H326.41zM473.901 27.579v24.82h-79.948v200.082h79.948v20.132h-79.948v58.742c-13.233 1.793-26.466 3.723-39.837 5.654V27.579zm396.71 246.413L821.539 0h-90.287l129.847 541.641h19.85L1010.8 0h-90.291zm-18.058 22.752c-5.238 0-16.403.276-21.641.414l-64.648-269.58h32.255m145.01 0h32.255L911.55 295.504c-5.652 0-17.231.138-22.882.276m180.022-1.656v321.014l94.97-73.359V0h-94.97zm67.54-266.545v265.994c-13.23 0-26.46.276-39.83.276V27.579zM1401.03 0v255.79L1257.81 0h-16.68v541.641h94.97V281.852l143.36 259.789h16.68V0zm-88.36 208.217v79.564c-15.85 1.241-31.98 2.207-48.11 3.034V60.121l128.89 220.49c-8.14.965-26.61 1.793-34.88 2.62zm111.79 67.981V23.442h48.11v245.724a2371 2371 0 0 1-48.11 7.032m-760.337 28.13V0H569.15v541.641h174.921v-83.976h-79.948zm-67.405-276.75h39.837V306.26c-13.233.965-26.466 1.93-39.837 3.034z"/></g><defs><clipPath id="a"><path fill="#fff" d="M0 0h1496v615H0z"/></clipPath></defs></svg>

<svg width="1496" height="615" viewBox="0 0 1496 615" fill="none" xmlns="http://www.w3.org/2000/svg">
<g clip-path="url(#clip0_22600_339)">
<path d="M266.724 0H163.756L94.8354 219.387V0H0V590.869L94.9732 541.779V294.676L121.715 378.928L150.11 468.558L173.267 541.779H275.408L174.095 257.445L266.724 0ZM27.5684 27.5785H67.4048V390.925C54.1719 393.959 40.9391 396.992 27.5684 400.164V27.5785ZM183.743 366.38C172.165 368.586 160.586 370.931 148.869 373.413L121.301 286.402L112.066 257.307L121.301 227.798L184.157 27.5785H227.577L148.18 248.068L144.872 257.307L148.18 266.546L183.743 366.242V366.38Z" fill="white"/>
<path d="M326.41 341.146V541.779H501.332V457.803H421.383V300.192H501.332V224.902H421.383V79.9776H501.332V0H326.41V341.146ZM473.901 27.5785V52.3991H393.953V252.481H473.901V272.613H393.953V331.355C380.72 333.148 367.487 335.078 354.116 337.009V27.5785H473.901Z" fill="white"/>
<path d="M870.611 273.992L821.539 0H731.252L861.099 541.641H880.949L1010.8 0H920.509L870.611 273.992ZM852.553 296.744C847.315 296.744 836.15 297.02 830.912 297.158L766.264 27.5785H798.519M943.529 27.5785H975.784L911.55 295.503C905.898 295.503 894.319 295.641 888.668 295.779" fill="white"/>
<path d="M1068.69 294.124V615.138L1163.66 541.779V0H1068.69V294.124ZM1136.23 27.5785V293.573C1123 293.573 1109.77 293.849 1096.4 293.849V27.5785H1136.23Z" fill="white"/>
<path d="M1401.03 0V255.79L1257.81 0H1241.13V291.78V541.641H1336.1V281.852L1479.46 541.641H1496.14V0H1401.16H1401.03ZM1312.67 208.217V287.781C1296.82 289.022 1280.69 289.988 1264.56 290.815V60.1211L1393.45 280.611C1385.31 281.576 1366.84 282.404 1358.57 283.231L1312.67 208.217ZM1424.46 276.198V23.4417H1472.57V269.166C1456.71 271.648 1440.73 273.992 1424.46 276.198Z" fill="white"/>
<path d="M664.123 304.328V0H569.15V311.499V541.641H744.071V457.665H664.123V304.328ZM596.718 27.5785H636.555V306.259C623.322 307.224 610.089 308.189 596.718 309.293V27.5785Z" fill="white"/>
</g>
<defs>
<clipPath id="clip0_22600_339">
<rect width="1496" height="615" fill="white"/>
</clipPath>
</defs>
</svg>
